X:1
T:Title
%%score 1 2
L:1/8
Q:1/4=92
M:3/4
K:Ab
V:1 treble nm="Grand Piano, Soprano"
V:2 bass nm="Choir Pad, Tell It All"
V:1
 [CE]>[Fd] [Ec]2 [DB]2 | [B,D]>[B,D] [DB]2 [CA]2 | [CE]>[EA] [EG]2 [DF]2 | [B,D]>[DF] [CE]4 | %4
w: By~Frank~Marion~Davis * * *||||
 [CE]>[Fd] [Ec]2 [DB]2 | [B,D]>[B,D] [DB]2 [CA]2 | [EG]>[DF] [CE]2 [CA]2 | [DB]>[DE] [CA]4 | %8
w: ||||
 [CE]>[Fd] [Ec]4 | [DE]>[DB] [CA]4 | [CE]>[EA] [EG]2 [DF]2 | [EG]>[DF] [DF]2 [CE]2 | %12
w: ||||
 [CE]>[Fd] [Ec]2 [DB]2 | [B,D]>[B,D] [DB]2 [CA]2 | [EG]>[DF] [CE]2 [CA]2 | [DB]>[DE] [CA]4- | %16
w: ||||
 [CA]4 z2 |] %17
w: |
V:2
 [A,,A,]>[A,,A,] [A,,A,]2 [D,F,]2 | [E,G,]>[E,G,] E,2 [A,,E,]2 | [C,A,]>[C,A,] [D,A,]2 [D,A,]2 | %3
 [D,A,]>[D,A,] [A,,A,]4 | [A,,A,]>[A,,A,] [A,,A,]2 [D,F,]2 | [E,G,]>[E,G,] [E,G,]2 [F,A,]2 | %6
 [D,A,]>[D,A,] [D,A,]2 E,2 | [E,G,]>[E,G,] [A,,A,]4 | z2 [A,,A,]>[A,,A,] [A,,A,]2 | %9
 z2 [A,,E,]>[A,,E,] [A,,E,]2 | [A,,A,]>[C,A,] [D,A,]2 [D,A,]2 | [D,A,]>[D,A,] [A,,A,]2 [A,,A,]2 | %12
 [A,,A,]>[A,,A,] [A,,A,]2 [D,F,]2 | [E,G,]>[E,G,] [E,G,]2 [F,A,]2 | [D,A,]>[D,A,] [E,A,]2 E,2 | %15
 [E,G,]>[E,G,] [A,,A,]4- | [A,,A,]4 z2 |] %17

